images/dist/fb.svg

<svg width="30" height="30" viewBox="0 0 30 30" fill="none" xmlns="http://www.w3.org/2000/svg">
<g clip-path="url(#clip0_70_106)">
<path d="M30 15C30 6.71484 23.2852 0 15 0C6.71484 0 0 6.71484 0 15C0 22.0312 4.8457 27.9375 11.3789 29.5605V19.582H8.28516V15H11.3789V13.0254C11.3789 7.92188 13.6875 5.55469 18.7031 5.55469C19.6523 5.55469 21.293 5.74219 21.9668 5.92969V10.0781C21.6152 10.043 21 10.0195 20.2324 10.0195C17.7715 10.0195 16.8223 10.9512 16.8223 13.3711V15H21.7207L20.877 19.582H16.8164V29.8887C24.2461 28.9922 30 22.6699 30 15Z" fill="white"/>
</g>
<defs>
<clipPath id="clip0_70_106">
<rect width="30" height="30" fill="white"/>
</clipPath>
</defs>
</svg>

<svg width="30" height="30" fill="none" xmlns="http://www.w3.org/2000/svg"><g clip-path="url(#a)"><path d="M30 15c0-8.285-6.715-15-15-15S0 6.715 0 15c0 7.031 4.846 12.938 11.379 14.56v-9.978H8.285V15h3.094v-1.975c0-5.103 2.309-7.47 7.324-7.47.95 0 2.59.187 3.264.375v4.148a19.788 19.788 0 0 0-1.735-.058c-2.46 0-3.41.931-3.41 3.351V15h4.899l-.844 4.582h-4.06v10.307C24.246 28.992 30 22.669 30 15Z" fill="#fff"/></g><defs><clipPath id="a"><path fill="#fff" d="M0 0h30v30H0z"/></clipPath></defs></svg>
